X: 178
T: No_38_Cow_Creek_Hunting_Dance_Song_(e).krn
N: Derived from No_38_Cow_Creek_Hunting_Dance_Song_(e).krn
%%abc-version 2.0
%%abcx-abcm2ps-target-version 5.9.1 (29 Sep 2008)
%%abc-creator hum2abc beta
%%abcx-conversion-date 2019/03/15 08:38:45
%%humdrum-veritas 4035326742
%%humdrum-veritas-data 3351573188
%%linebreak <none>
%%barnumbers 0
L: 1/8
M: 3/4
K: Eb clef=bass
[K:clef=bass][M:3/4](3CB,B,B,7/B,/ ||  
[M:2/4]A,2G, z ]|:  
B,3/A,/ A,/G,3/ ||  
[M:3/4]E,(E, E,3/)E,/E,2 ||  
[M:2/4](3A,G,A, A,/G,3/ ||  
[M:3/4]E,E,- E,3/E,/ E, z ||  
[M:2/4]B,,2B,,2 | 
B,,2D,B,, ||  
[M:3/4]E,4E,2 :|]  
[M:2/4]E,4 | 
B,4- | 
B,E,/ z/B,2



